X:132
T: Walc
N: K0445T
O: z Warszawy
M: 6/8
L: 1/8
K: C
GBcedc | g4ce | agegec | d4
GB | dGBd2B | g4Bd | f2da2g | e4
^FG | edGedG | agecAF | AccBgg | c3c3 |
e3ecA | a3fdB | ^G3Gfe | A3cBc |
a2gfed | a2gedc | BddBaa | gdec3

@@@ Tune index: 3627
